X:179
T:Hunter's Purse
R:reel
Z:id:hn-reel-13
M:C|
K:Ador
eAAG AGEF|G2AF GED2|cBcd eged|cdef ged2|
eAAG AGEF|G2AF GED2|cBcd eged|cABG A2Bd:|
|:eaab agef|g2af gedB|cBcd (3efg ed|cdef ged2|
eaab agef|g2af gedB|cBcd eged|cABG A2Bd:|
